img/svg/service-wifi.svg

<?xml version="1.0" encoding="utf-8"?><!DOCTYPE svg PUBLIC "-//W3C//DTD SVG 1.1//EN" "http://www.w3.org/Graphics/SVG/1.1/DTD/svg11.dtd"><svg version="1.1" baseProfile="full" xmlns="http://www.w3.org/2000/svg" xmlns:xlink="http://www.w3.org/1999/xlink" xmlns:ev="http://www.w3.org/2001/xml-events"   height="12px"   width="16px" ><path fill="rgb( 255, 102, 0 )" d="M15.93,4.65899999999999 C15.93,4.65899999999999 15.924,4.666 15.924,4.666 C15.924,4.666 14.363,6.24200000000002 14.363,6.24200000000002 C14.295,6.31 14.183,6.31 14.116,6.24099999999999 C10.742,2.83600000000001 5.25200000000001,2.834 1.87799999999999,6.24099999999999 C1.81,6.31 1.69900000000001,6.31 1.63,6.24099999999999 C1.63,6.24099999999999 0.06999999999999,4.666 0.06999999999999,4.666 C0,4.59500000000003 0,4.483 0.06799999999998,4.41399999999999 C4.42599999999999,0.01499999999999 11.51,0 15.887,4.37599999999998 C15.887,4.37599999999998 15.932,4.40699999999998 15.932,4.40699999999998 C16,4.476 15.998,4.58999999999997 15.93,4.65899999999999 ZM13.256,7.03100000000001 C13.256,7.03100000000001 13.301,7.06299999999999 13.301,7.06299999999999 C13.369,7.13099999999997 13.369,7.24400000000003 13.3,7.31400000000002 C13.3,7.31400000000002 13.294,7.31999999999999 13.294,7.31999999999999 C13.294,7.31999999999999 11.777,8.85199999999998 11.777,8.85199999999998 C11.709,8.92099999999999 11.597,8.92099999999999 11.53,8.85199999999998 C9.58100000000002,6.88499999999999 6.411,6.88600000000002 4.464,8.85199999999998 C4.39499999999998,8.92099999999999 4.28399999999999,8.92099999999999 4.21600000000001,8.85199999999998 C4.21600000000001,8.85199999999998 2.69999999999999,7.31999999999999 2.69999999999999,7.31999999999999 C2.63099999999997,7.25099999999998 2.63099999999997,7.13799999999998 2.69900000000001,7.06999999999999 C5.60599999999999,4.13400000000001 10.331,4.12099999999998 13.256,7.03100000000001 ZM10.141,9.62299999999999 C10.213,9.69600000000003 10.323,9.73000000000002 10.105,9.95100000000002 C10.105,9.95100000000002 7.98899999999998,12 7.98899999999998,12 C7.98899999999998,12 5.85199999999998,9.88499999999999 5.85199999999998,9.88499999999999 C5.72300000000001,9.75599999999997 5.762,9.71499999999997 5.83199999999999,9.64800000000002 C7.19400000000002,8.32100000000003 8.89800000000002,8.459 10.141,9.62299999999999 Z "/></svg>

<svg baseProfile="full" xmlns="http://www.w3.org/2000/svg" height="12" width="16"><path fill="rgb( 255, 102, 0 )" d="M15.93 4.659l-.006.007-1.561 1.576c-.068.068-.18.068-.247-.001-3.374-3.405-8.864-3.407-12.238 0-.068.069-.179.069-.248 0l-1.56-1.575c-.07-.071-.07-.183-.002-.252 4.358-4.399 11.442-4.414 15.819-.038l.045.031c.068.069.066.183-.002.252zm-2.674 2.372l.045.032c.068.068.068.181-.001.251l-.006.006-1.517 1.532c-.068.069-.18.069-.247 0-1.949-1.967-5.119-1.966-7.066 0-.069.069-.18.069-.248 0l-1.516-1.532c-.069-.069-.069-.182-.001-.25 2.907-2.936 7.632-2.949 10.557-.039zm-3.115 2.592c.072.073.182.107-.036.328l-2.116 2.049-2.137-2.115c-.129-.129-.09-.17-.02-.237 1.362-1.327 3.066-1.189 4.309-.025z"/></svg>
